X:1
T:Amazing Grace
C:John Newton (lyrics, 1779), trad. American (melody "New Britain")
S:Public domain (US, pre-1929)
M:3/4
L:1/4
Q:1/4=70
K:G
H:Canonical concert-pitch melody (the "New Britain" tune, first paired with Newton's lyrics in Walker's 1835 "Southern Harmony").
H:Pentatonic — fits naturally on a 6-hole NAF in G or any pentatonic flute.
D | G2 B | G2 B | A2 G | E2 D |
G2 B | G2 A | B3 | B2 G |
B2 d | d2 B | A2 G | E2 D |
G2 B | G2 A | G3 | G3 |]
